X: 173
T:Bonnie Banks of Loch Lomond, The
B:Allan's Violin Gems
Z:Nigel Gatherer
Z: chords by Alf Warnock
M:4/4
L:1/8
K:Bb % transposed from G
F2|"Bb"B2 Bc d2 cB|"Cm"c2 cB G2 "F"F2|"Bb"B2 B2 B2 df|"Eb"g4 "Bb"f2 f2|
"Eb"g2 gf "Bb"d2 df|"Cm"edcB G2 "F"FG|"Bb"B2 df "Eb"g2 fd|"F"c4 "Bb"B2 "F"F2|
"Bb"B2 Bc d2 cB|"Eb"cdcB "Cm"G2 "F"FG|"Bb"B2 B2 B2 df|"Eb"g4 "Bb"f2 f2|
"Eb"g2 bg "Bb"f2 df|"Eb"edcB "Cm"G2 "F"FG|"Bb"BBdf "Eb"g2 fd|"F"c4 "Bb"B2|]

